!!!SOCIAL_FUNCTION:	songs connected with legends
!!!PDT:	1929
!!!OTL: No_10_Song_After_Emerging_from_Ashes_Hill.krn
!!!REG: Southwest
!!!LANG: Non-Tone
!!!LING_GROUP: Uto-Aztecan
**kern
*staff1
=1-
*clefF4
*k[b-e-a-d-g-c-]
*M3/4
2A-\
4A-\
=2
A-q/
2A-\
4A-\
=3
2A-\
(8G-\L
8E-\J)
=4
4G-\
4E-\
4r
=5
4A-\
(4G-\
4E-\)
=6
8G-\L
[8G-\J
8G-\L]
8E-\J
8A-\L
8G-\J
=7
8A-\L
[8E-\J
4E-\]
8D-/L
8C-/J
=8
4D-\
4C-/
4r
=9
4E-\
8D-/L
[8C-/J
4C-/]
=10||
*M2/4
4.C-/
8GG-/
=11||
*M3/4
4D-\
4.D-\
8C-/
=12||
*M2/4
8D-\L
8D-\J
[4D-\
=13
4D-\]
4r
=14||
*M3/4
4G-\
8E-\L
[8D-\J
8.D-\L]
16D-\Jk
=15||
*M2/4
2D-\
=16||
*M3/4
16G-\LK
8.G-\J
16A-\LK
[8.G-\J
8G-/L]
8C-/J
=17
4D-\
2C-/
=18
4.D-\
8C-/
8E-/L
8C-/J
=19
8D-/L
[8C-/J
4C-/]
4D-\
=20
4.D-\
8D-\
4C-/
=21
8D-\L
8D-\J
16D-\LK
[8.D-\J
4D-\]
=22
2.D-\
==
*-
